portfolio/adventure/img/svg/repeat2.svg

<svg xmlns="http://www.w3.org/2000/svg" width="52" height="52"><path d="M49.562 18.687h-2.437-1.343H39a2.438 2.438 0 1 1 0-4.875h4.198C39.381 8.413 33.118 4.874 26 4.874c-11.667 0-21.125 9.459-21.125 21.125a2.437 2.437 0 0 1-4.875 0c0-14.36 11.64-26 26-26 8.72 0 16.416 4.305 21.125 10.897V6.499a2.438 2.438 0 0 1 4.875 0v9.75a2.437 2.437 0 0 1-2.438 2.438zM2.437 33.312H13a2.437 2.437 0 0 1 0 4.875H8.769c3.82 5.405 10.107 8.937 17.231 8.937 11.667 0 21.125-9.458 21.125-21.125a2.437 2.437 0 1 1 4.875 0c0 14.359-11.641 26-26 26-8.731 0-16.422-4.324-21.125-10.932v4.432a2.437 2.437 0 1 1-4.875 0V35.75a2.437 2.437 0 0 1 2.437-2.438z" fill-rule="evenodd"/></svg>

<svg xmlns="http://www.w3.org/2000/svg" xmlns:xlink="http://www.w3.org/1999/xlink" preserveaspectratio="xMidYMid" width="52" height="52" viewbox="0 0 52 52">
  <defs>
  </defs>
  <path d="M49.562,18.687 C49.562,18.687 47.125,18.687 47.125,18.687 C47.125,18.687 45.782,18.687 45.782,18.687 C45.782,18.687 39.000,18.687 39.000,18.687 C37.654,18.687 36.562,17.596 36.562,16.249 C36.562,14.903 37.654,13.812 39.000,13.812 C39.000,13.812 43.198,13.812 43.198,13.812 C39.381,8.413 33.118,4.874 26.000,4.874 C14.333,4.874 4.875,14.333 4.875,25.999 C4.875,27.345 3.784,28.436 2.437,28.436 C1.091,28.436 -0.000,27.345 -0.000,25.999 C-0.000,25.999 -0.000,25.999 -0.000,25.999 C-0.000,11.639 11.640,-0.001 26.000,-0.001 C34.720,-0.001 42.416,4.304 47.125,10.896 C47.125,10.896 47.125,6.499 47.125,6.499 C47.125,5.154 48.216,4.062 49.562,4.062 C50.909,4.062 52.000,5.154 52.000,6.499 C52.000,6.499 52.000,16.249 52.000,16.249 C52.000,17.596 50.909,18.687 49.562,18.687 ZM2.437,33.312 C2.437,33.312 13.000,33.312 13.000,33.312 C14.346,33.312 15.437,34.403 15.437,35.750 C15.437,37.095 14.346,38.187 13.000,38.187 C13.000,38.187 8.769,38.187 8.769,38.187 C12.589,43.592 18.876,47.124 26.000,47.124 C37.667,47.124 47.125,37.666 47.125,25.999 C47.125,24.653 48.216,23.562 49.562,23.562 C50.909,23.562 52.000,24.653 52.000,25.999 C52.000,25.999 52.000,25.999 52.000,25.999 C52.000,40.358 40.359,51.999 26.000,51.999 C17.269,51.999 9.578,47.675 4.875,41.067 C4.875,41.067 4.875,45.499 4.875,45.499 C4.875,46.846 3.784,47.937 2.437,47.937 C1.091,47.937 -0.000,46.846 -0.000,45.499 C-0.000,45.499 -0.000,35.750 -0.000,35.750 C-0.000,34.403 1.091,33.312 2.437,33.312 Z" id="repeat2" fill-rule="evenodd"/>
</svg>
